X:48
T:Polonäs i Am ur Nils-Johan Nybergs notbok
R:Slängpolska
B:FMK - katalog M46 bild 16
B:Nils-Johan Nybergs notbok
O:Skåne, Herberga
Z:Nils L
M:3/4
L:1/16
K:Am
A^GAB cBcB AGAB | cBcd e4 c4 | eceg g2a2 fdfa | a2g2 efed cdcB |
A^GAB cBcB AGAB | cBcd e4 c4 | eceg g2a2 fdfa | a2g2 e4 z4 ::
eceg g2a2 fdfa | a2g2 e4 c4 | c2e2 e2g2 eceg | gagf d4 B4 |
cBcd e2c2 c2A2 | cBAG "^?"F2^G2 A4 :|

